build/category/LabelOutline.svg

<svg xmlns="http://www.w3.org/2000/svg" fill="none" viewBox="0 0 24 24" focusable="false"><path d="M0 0H24V24H0z"/><path fill="#74767B" fill-rule="evenodd" d="M7.88342 3.1105C7.52605 3.07655 7.20881 3.33874 7.17486 3.69612C7.14091 4.05349 7.4031 4.37072 7.76048 4.40468L12.4503 4.85021C12.985 4.90101 13.4861 5.13342 13.8703 5.50876L19.4074 10.9185C19.6642 11.1694 20.0757 11.1646 20.3266 10.9078C20.5774 10.6511 20.5727 10.2395 20.3159 9.98867L14.7788 4.57889C14.1821 3.99592 13.4037 3.63493 12.5732 3.55604L7.88342 3.1105ZM3.60835 6.8266C3.51885 6.00118 4.2155 5.30454 5.04092 5.39404L11.7011 6.1162C12.3811 6.18993 13.0154 6.49378 13.4991 6.9774L18.2062 11.6846C19.3778 12.8561 19.3778 14.7556 18.2062 15.9272L14.1415 19.9919C12.9699 21.1635 11.0704 21.1635 9.89888 19.9919L5.19171 15.2847C4.70809 14.8011 4.40424 14.1668 4.33052 13.4868L3.60835 6.8266ZM17.287 15.008L13.2223 19.0727C12.5584 19.7366 11.482 19.7366 10.8181 19.0727L6.11095 14.3655C5.8369 14.0915 5.66472 13.732 5.62294 13.3467L4.90078 6.68646L11.561 7.40862C11.9463 7.4504 12.3058 7.62258 12.5798 7.89664L17.287 12.6038C17.9509 13.2677 17.9509 14.3441 17.287 15.008ZM7.88623 10.6829C8.43852 10.6829 8.88623 10.2352 8.88623 9.6829C8.88623 9.13061 8.43852 8.6829 7.88623 8.6829C7.33395 8.6829 6.88623 9.13061 6.88623 9.6829C6.88623 10.2352 7.33395 10.6829 7.88623 10.6829Z"/></svg>

<svg xmlns="http://www.w3.org/2000/svg" fill="none" viewBox="0 0 24 24" focusable="false"><path fill="#74767B" fill-rule="evenodd" d="M7.17 3.69c.03-.36.35-.62.71-.58l4.69.44c.83.08 1.61.44 2.2 1.02l5.54 5.41c.26.25.26.67.01.92-.25.26-.66.26-.92.01L13.87 5.5c-.39-.37-.89-.6-1.42-.65L7.76 4.4a.65.65 0 0 1-.59-.71M3.6 6.82C3.51 6 4.21 5.3 5.04 5.39l6.66.72c.68.07 1.31.38 1.79.86l4.71 4.71a3 3 0 0 1 0 4.24l-4.06 4.07a3.01 3.01 0 0 1-4.25 0l-4.7-4.71c-.49-.48-.79-1.12-.86-1.8zM17.28 15l-4.06 4.07c-.67.66-1.74.66-2.41 0l-4.7-4.71c-.28-.27-.45-.63-.49-1.02L4.9 6.68l6.66.72c.38.05.74.22 1.01.49l4.71 4.71c.67.66.67 1.74 0 2.4m-9.4-4.32c.55 0 1-.45 1-1s-.45-1-1-1-1 .45-1 1 .45 1 1 1"/></svg>
